X: 13076
T: Finore
R: reel
M: 4/4
K: Eminor
|:"Em" E2ED EFGA|"G" B2BG "D"ABcd|"Am" eg~g2 afge|
"C" d2cA "D" dcAF|"Em" GE~E2 G3A|"G" BcBG"D" ABcd|
"Am" ecdB c/B/A B/A/G|1 "C" EFGA "B" BAGD:|2 "C" EFGA "D" BAA2||
|:"Am" ae~e2 aege|"D" d2cA dcAf|"G" g3f gedB|
"Em" DEGA BAab|"F" c'3b agde|"Em" d2cA "F"dcA2|
"D" ABcd eEED|1 "Em" EFGE"D" BAA2:|2 "Am"EFGA"B" BAGA||E2||

